wallet-outline.svg

<svg fill="currentColor" viewBox="0 0 24 24"><path d="M5 3a2 2 0 0 0-2 2v14a2 2 0 0 0 2 2h14a2 2 0 0 0 2-2v-2.28A2 2 0 0 0 22 15V9a2 2 0 0 0-1-1.72V5a2 2 0 0 0-2-2zm0 2h14v2h-6a2 2 0 0 0-2 2v6a2 2 0 0 0 2 2h6v2H5zm8 4h7v6h-7zm3 1.5a1.5 1.5 0 0 0-1.5 1.5 1.5 1.5 0 0 0 1.5 1.5 1.5 1.5 0 0 0 1.5-1.5 1.5 1.5 0 0 0-1.5-1.5"/></svg>

<svg  viewBox="0 0 24 24" fill="currentColor"><path  d="M5,3C3.89,3 3,3.9 3,5V19A2,2 0 0,0 5,21H19A2,2 0 0,0 21,19V16.72C21.59,16.37 22,15.74 22,15V9C22,8.26 21.59,7.63 21,7.28V5A2,2 0 0,0 19,3H5M5,5H19V7H13A2,2 0 0,0 11,9V15A2,2 0 0,0 13,17H19V19H5V5M13,9H20V15H13V9M16,10.5A1.5,1.5 0 0,0 14.5,12A1.5,1.5 0 0,0 16,13.5A1.5,1.5 0 0,0 17.5,12A1.5,1.5 0 0,0 16,10.5Z"/></svg>
